svg/color/arena.svg

<?xml version="1.0" encoding="UTF-8" ?>
<!DOCTYPE svg PUBLIC "-//W3C//DTD SVG 1.1//EN" "http://www.w3.org/Graphics/SVG/1.1/DTD/svg11.dtd">
<svg width="250pt" height="248pt" viewBox="0 0 250 248" version="1.1" xmlns="http://www.w3.org/2000/svg">
<g id="#fffffeff">
<path fill="#fffffe" opacity="1.00" d=" M 0.00 0.00 L 80.88 0.00 C 73.44 3.39 65.92 6.65 58.88 10.82 C 40.51 21.40 25.17 36.85 13.72 54.61 C 7.94 63.65 4.05 73.69 0.00 83.59 L 0.00 0.00 Z" />
<path fill="#fffffe" opacity="1.00" d=" M 169.30 0.00 L 250.00 0.00 L 250.00 82.01 C 246.69 74.72 243.78 67.23 239.84 60.26 C 229.01 40.88 213.34 24.20 194.39 12.57 C 186.55 7.41 177.82 3.86 169.30 0.00 Z" />
<path fill="#fffffe" opacity="1.00" d=" M 0.00 164.35 C 2.42 170.39 4.80 176.47 7.58 182.36 C 19.44 206.14 38.67 226.23 61.97 239.02 C 68.08 242.34 74.46 245.10 80.78 248.00 L 0.00 248.00 L 0.00 164.35 Z" />
<path fill="#fffffe" opacity="1.00" d=" M 243.93 179.98 C 245.91 175.35 247.88 170.72 250.00 166.14 L 250.00 248.00 L 169.25 248.00 C 175.01 245.61 180.68 243.00 186.25 240.21 C 211.31 227.07 231.84 205.55 243.93 179.98 Z" />
</g>
<g id="#ba9c67ff">
<path fill="#ba9c67" opacity="1.00" d=" M 80.88 0.00 L 169.30 0.00 C 177.82 3.86 186.55 7.41 194.39 12.57 C 213.34 24.20 229.01 40.88 239.84 60.26 C 243.78 67.23 246.69 74.72 250.00 82.01 L 250.00 166.14 C 247.88 170.72 245.91 175.35 243.93 179.98 C 231.84 205.55 211.31 227.07 186.25 240.21 C 180.68 243.00 175.01 245.61 169.25 248.00 L 80.78 248.00 C 74.46 245.10 68.08 242.34 61.97 239.02 C 38.67 226.23 19.44 206.14 7.58 182.36 C 4.80 176.47 2.42 170.39 0.00 164.35 L 0.00 83.59 C 4.05 73.69 7.94 63.65 13.72 54.61 C 25.17 36.85 40.51 21.40 58.88 10.82 C 65.92 6.65 73.44 3.39 80.88 0.00 M 71.72 43.62 C 73.06 46.13 74.32 48.69 76.03 50.98 C 84.29 62.63 91.73 74.86 100.04 86.48 C 106.07 85.45 111.95 83.28 118.15 83.18 C 118.10 67.28 118.11 51.37 118.15 35.46 C 102.37 35.74 86.71 38.73 71.72 43.62 M 132.11 35.48 C 132.42 51.36 132.19 67.25 132.26 83.13 C 138.35 83.52 144.26 85.10 150.10 86.78 C 159.85 72.57 169.39 58.22 178.79 43.78 C 163.78 38.68 147.97 35.77 132.11 35.48 M 39.22 67.23 C 35.35 74.73 37.08 84.26 42.56 90.51 C 51.92 101.77 66.12 107.43 79.78 111.53 C 80.62 105.75 83.46 100.58 87.18 96.16 C 82.92 93.19 78.65 90.22 74.66 86.89 C 78.53 86.72 82.41 86.80 86.29 86.69 C 77.97 73.75 69.15 61.13 60.80 48.21 C 52.40 52.86 43.63 58.33 39.22 67.23 M 163.99 86.62 C 168.05 86.79 172.12 86.72 176.17 86.99 C 171.81 90.01 167.51 93.12 163.24 96.27 C 167.04 100.63 169.88 105.84 170.78 111.60 C 183.48 107.65 196.33 102.46 205.90 92.90 C 211.60 86.92 215.34 77.95 212.21 69.82 C 208.58 59.53 198.85 53.36 189.81 48.25 C 181.04 60.93 172.71 73.91 163.99 86.62 M 93.65 93.45 C 96.90 95.89 100.30 98.11 103.48 100.63 C 105.11 101.54 103.86 103.14 103.37 104.31 C 88.60 134.21 73.89 164.16 59.07 194.04 C 57.43 196.99 56.60 200.65 53.83 202.81 C 48.92 206.24 43.58 209.02 38.78 212.61 C 61.98 212.89 85.19 212.86 108.38 212.62 C 103.17 208.84 97.59 205.60 92.12 202.22 C 94.86 196.28 97.53 190.30 100.47 184.46 C 101.05 182.49 103.33 182.90 104.92 182.78 C 119.63 182.85 134.34 182.82 149.06 182.80 C 151.96 189.34 155.44 195.60 158.03 202.28 C 152.57 205.64 147.12 209.00 141.73 212.49 C 165.16 212.80 188.60 212.73 212.03 212.63 C 207.23 209.56 202.40 206.53 197.59 203.48 C 194.07 201.37 193.00 197.17 191.19 193.76 C 176.68 164.29 161.97 134.93 147.43 105.48 C 146.96 104.12 145.83 102.74 146.22 101.25 C 149.48 98.14 153.38 95.81 157.09 93.28 C 135.94 93.26 114.78 92.97 93.65 93.45 M 37.25 94.86 C 37.14 104.59 37.28 114.32 37.19 124.05 C 36.92 131.29 41.50 137.67 46.64 142.33 C 53.84 148.33 62.20 152.98 71.16 155.77 C 75.50 145.95 80.68 136.52 85.15 126.76 C 73.44 124.06 62.08 119.59 52.00 113.00 C 45.39 108.61 39.77 102.49 37.25 94.86 M 206.20 106.19 C 195.20 117.44 179.86 122.98 164.94 126.77 C 169.59 136.47 174.56 146.01 179.15 155.74 C 183.62 154.21 188.08 152.56 192.13 150.09 C 199.64 145.65 207.55 140.55 211.27 132.30 C 213.59 127.90 213.17 122.80 213.18 118.00 C 213.06 110.51 213.35 103.01 213.00 95.52 C 210.90 99.18 209.32 103.24 206.20 106.19 M 37.26 141.82 C 37.45 151.48 37.07 161.16 37.47 170.81 C 39.09 179.84 45.54 187.26 52.85 192.41 C 57.07 184.07 61.35 175.75 65.24 167.24 C 53.52 162.22 41.59 154.47 37.26 141.82 M 185.11 167.30 C 188.95 175.79 193.22 184.07 197.39 192.40 C 205.81 186.69 212.96 177.59 213.14 167.04 C 213.19 158.63 213.29 150.21 213.05 141.79 C 208.68 154.45 196.81 162.18 185.11 167.30 Z" />
<path fill="#ba9c67" opacity="1.00" d=" M 124.50 134.54 C 124.77 134.45 125.32 134.26 125.59 134.17 C 131.16 145.98 137.03 157.66 142.33 169.60 C 130.82 169.62 119.31 169.85 107.80 169.58 C 113.33 157.89 118.75 146.12 124.50 134.54 Z" />
</g>
<g id="#010101ff">
<path fill="#010101" opacity="1.00" d=" M 71.72 43.62 C 86.71 38.73 102.37 35.74 118.15 35.46 C 118.11 51.37 118.10 67.28 118.15 83.18 C 111.95 83.28 106.07 85.45 100.04 86.48 C 91.73 74.86 84.29 62.63 76.03 50.98 C 74.32 48.69 73.06 46.13 71.72 43.62 Z" />
<path fill="#010101" opacity="1.00" d=" M 132.11 35.48 C 147.97 35.77 163.78 38.68 178.79 43.78 C 169.39 58.22 159.85 72.57 150.10 86.78 C 144.26 85.10 138.35 83.52 132.26 83.13 C 132.19 67.25 132.42 51.36 132.11 35.48 Z" />
<path fill="#010101" opacity="1.00" d=" M 39.22 67.23 C 43.63 58.33 52.40 52.86 60.80 48.21 C 69.15 61.13 77.97 73.75 86.29 86.69 C 82.41 86.80 78.53 86.72 74.66 86.89 C 78.65 90.22 82.92 93.19 87.18 96.16 C 83.46 100.58 80.62 105.75 79.78 111.53 C 66.12 107.43 51.92 101.77 42.56 90.51 C 37.08 84.26 35.35 74.73 39.22 67.23 Z" />
<path fill="#010101" opacity="1.00" d=" M 163.99 86.62 C 172.71 73.91 181.04 60.93 189.81 48.25 C 198.85 53.36 208.58 59.53 212.21 69.82 C 215.34 77.95 211.60 86.92 205.90 92.90 C 196.33 102.46 183.48 107.65 170.78 111.60 C 169.88 105.84 167.04 100.63 163.24 96.27 C 167.51 93.12 171.81 90.01 176.17 86.99 C 172.12 86.72 168.05 86.79 163.99 86.62 Z" />
<path fill="#010101" opacity="1.00" d=" M 93.65 93.45 C 114.78 92.97 135.94 93.26 157.09 93.28 C 153.38 95.81 149.48 98.14 146.22 101.25 C 145.83 102.74 146.96 104.12 147.43 105.48 C 161.97 134.93 176.68 164.29 191.19 193.76 C 193.00 197.17 194.07 201.37 197.59 203.48 C 202.40 206.53 207.23 209.56 212.03 212.63 C 188.60 212.73 165.16 212.80 141.73 212.49 C 147.12 209.00 152.57 205.64 158.03 202.28 C 155.44 195.60 151.96 189.34 149.06 182.80 C 134.34 182.82 119.63 182.85 104.92 182.78 C 103.33 182.90 101.05 182.49 100.47 184.46 C 97.53 190.30 94.86 196.28 92.12 202.22 C 97.59 205.60 103.17 208.84 108.38 212.62 C 85.19 212.86 61.98 212.89 38.78 212.61 C 43.58 209.02 48.92 206.24 53.83 202.81 C 56.60 200.65 57.43 196.99 59.07 194.04 C 73.89 164.16 88.60 134.21 103.37 104.31 C 103.86 103.14 105.11 101.54 103.48 100.63 C 100.30 98.11 96.90 95.89 93.65 93.45 M 124.50 134.54 C 118.75 146.12 113.33 157.89 107.80 169.58 C 119.31 169.85 130.82 169.62 142.33 169.60 C 137.03 157.66 131.16 145.98 125.59 134.17 C 125.32 134.26 124.77 134.45 124.50 134.54 Z" />
<path fill="#010101" opacity="1.00" d=" M 37.25 94.86 C 39.77 102.49 45.39 108.61 52.00 113.00 C 62.08 119.59 73.44 124.06 85.15 126.76 C 80.68 136.52 75.50 145.95 71.16 155.77 C 62.20 152.98 53.84 148.33 46.64 142.33 C 41.50 137.67 36.92 131.29 37.19 124.05 C 37.28 114.32 37.14 104.59 37.25 94.86 Z" />
<path fill="#010101" opacity="1.00" d=" M 206.20 106.19 C 209.32 103.24 210.90 99.18 213.00 95.52 C 213.35 103.01 213.06 110.51 213.18 118.00 C 213.17 122.80 213.59 127.90 211.27 132.30 C 207.55 140.55 199.64 145.65 192.13 150.09 C 188.08 152.56 183.62 154.21 179.15 155.74 C 174.56 146.01 169.59 136.47 164.94 126.77 C 179.86 122.98 195.20 117.44 206.20 106.19 Z" />
<path fill="#010101" opacity="1.00" d=" M 37.26 141.82 C 41.59 154.47 53.52 162.22 65.24 167.24 C 61.35 175.75 57.07 184.07 52.85 192.41 C 45.54 187.26 39.09 179.84 37.47 170.81 C 37.07 161.16 37.45 151.48 37.26 141.82 Z" />
<path fill="#010101" opacity="1.00" d=" M 185.11 167.30 C 196.81 162.18 208.68 154.45 213.05 141.79 C 213.29 150.21 213.19 158.63 213.14 167.04 C 212.96 177.59 205.81 186.69 197.39 192.40 C 193.22 184.07 188.95 175.79 185.11 167.30 Z" />
</g>
</svg>

<?xml version="1.0" encoding="utf-8"?>
<!-- Generator: Adobe Illustrator 26.0.3, SVG Export Plug-In . SVG Version: 6.00 Build 0)  -->
<svg version="1.1" id="Layer_1" xmlns="http://www.w3.org/2000/svg" xmlns:xlink="http://www.w3.org/1999/xlink" x="0px" y="0px"
	 viewBox="0 0 250 248" style="enable-background:new 0 0 250 248;" xml:space="preserve">
<style type="text/css">
	.st0{fill:#BA9C67;}
	.st1{fill:#010101;}
</style>
<g id="_x23_ba9c67ff">
	<path class="st0" d="M80.9,0h88.4c8.5,3.9,17.2,7.4,25.1,12.6c18.9,11.6,34.6,28.3,45.4,47.7c3.9,7,6.9,14.5,10.2,21.8v84.1
		c-2.1,4.6-4.1,9.2-6.1,13.8c-12.1,25.6-32.6,47.1-57.7,60.2c-5.6,2.8-11.2,5.4-17,7.8H80.8c-6.3-2.9-12.7-5.7-18.8-9
		c-23.3-12.8-42.5-32.9-54.4-56.7c-2.8-5.9-5.2-12-7.6-18V83.6c4.1-9.9,7.9-19.9,13.7-29c11.4-17.8,26.8-33.2,45.2-43.8
		C65.9,6.7,73.4,3.4,80.9,0 M71.7,43.6c1.3,2.5,2.6,5.1,4.3,7.4c8.3,11.7,15.7,23.9,24,35.5c6-1,11.9-3.2,18.1-3.3
		c-0.1-15.9,0-31.8,0-47.7C102.4,35.7,86.7,38.7,71.7,43.6 M132.1,35.5c0.3,15.9,0.1,31.8,0.1,47.6c6.1,0.4,12,2,17.8,3.7
		c9.8-14.2,19.3-28.6,28.7-43C163.8,38.7,148,35.8,132.1,35.5 M39.2,67.2c-3.9,7.5-2.1,17,3.3,23.3c9.4,11.3,23.6,16.9,37.2,21
		c0.8-5.8,3.7-10.9,7.4-15.4c-4.3-3-8.5-5.9-12.5-9.3c3.9-0.2,7.8-0.1,11.6-0.2C78,73.8,69.2,61.1,60.8,48.2
		C52.4,52.9,43.6,58.3,39.2,67.2 M164,86.6c4.1,0.2,8.1,0.1,12.2,0.4c-4.4,3-8.7,6.1-12.9,9.3c3.8,4.4,6.6,9.6,7.5,15.3
		c12.7-3.9,25.6-9.1,35.1-18.7c5.7-6,9.4-15,6.3-23.1c-3.6-10.3-13.4-16.5-22.4-21.6C181,60.9,172.7,73.9,164,86.6 M93.7,93.4
		c3.2,2.4,6.7,4.7,9.8,7.2c1.6,0.9,0.4,2.5-0.1,3.7c-14.8,29.9-29.5,59.9-44.3,89.7c-1.6,3-2.5,6.6-5.2,8.8
		c-4.9,3.4-10.2,6.2-15.1,9.8c23.2,0.3,46.4,0.2,69.6,0c-5.2-3.8-10.8-7-16.3-10.4c2.7-5.9,5.4-11.9,8.3-17.8c0.6-2,2.9-1.6,4.4-1.7
		c14.7,0.1,29.4,0,44.1,0c2.9,6.5,6.4,12.8,9,19.5c-5.5,3.4-10.9,6.7-16.3,10.2c23.4,0.3,46.9,0.2,70.3,0.1
		c-4.8-3.1-9.6-6.1-14.4-9.2c-3.5-2.1-4.6-6.3-6.4-9.7c-14.5-29.5-29.2-58.8-43.8-88.3c-0.5-1.4-1.6-2.7-1.2-4.2
		c3.3-3.1,7.2-5.4,10.9-8C135.9,93.3,114.8,93,93.7,93.4 M37.2,94.9c-0.1,9.7,0,19.5-0.1,29.2c-0.3,7.2,4.3,13.6,9.5,18.3
		c7.2,6,15.6,10.6,24.5,13.4c4.3-9.8,9.5-19.2,14-29c-11.7-2.7-23.1-7.2-33.2-13.8C45.4,108.6,39.8,102.5,37.2,94.9 M206.2,106.2
		c-11,11.2-26.3,16.8-41.3,20.6c4.6,9.7,9.6,19.2,14.2,29c4.5-1.5,8.9-3.2,13-5.7c7.5-4.4,15.4-9.5,19.1-17.8
		c2.3-4.4,1.9-9.5,1.9-14.3c-0.1-7.5,0.2-15-0.2-22.5C210.9,99.2,209.3,103.2,206.2,106.2 M37.3,141.8c0.2,9.7-0.2,19.3,0.2,29
		c1.6,9,8.1,16.4,15.4,21.6c4.2-8.3,8.5-16.7,12.4-25.2C53.5,162.2,41.6,154.5,37.3,141.8 M185.1,167.3c3.8,8.5,8.1,16.8,12.3,25.1
		c8.4-5.7,15.6-14.8,15.8-25.4c0.1-8.4,0.1-16.8-0.1-25.2C208.7,154.4,196.8,162.2,185.1,167.3z"/>
	<path class="st0" d="M124.5,134.5c0.3-0.1,0.8-0.3,1.1-0.4c5.6,11.8,11.4,23.5,16.7,35.4c-11.5,0-23,0.2-34.5,0
		C113.3,157.9,118.8,146.1,124.5,134.5z"/>
</g>
<g id="_x23_010101ff">
	<path class="st1" d="M71.7,43.6c15-4.9,30.7-7.9,46.4-8.2c0,15.9-0.1,31.8,0,47.7c-6.2,0.1-12.1,2.3-18.1,3.3
		C91.7,74.9,84.3,62.6,76,51C74.3,48.7,73.1,46.1,71.7,43.6z"/>
	<path class="st1" d="M132.1,35.5c15.9,0.3,31.7,3.2,46.7,8.3c-9.4,14.4-18.9,28.8-28.7,43c-5.8-1.7-11.8-3.3-17.8-3.7
		C132.2,67.2,132.4,51.4,132.1,35.5z"/>
	<path class="st1" d="M39.2,67.2c4.4-8.9,13.2-14.4,21.6-19C69.2,61.1,78,73.8,86.3,86.7c-3.9,0.1-7.8,0-11.6,0.2
		c4,3.3,8.3,6.3,12.5,9.3c-3.7,4.4-6.6,9.6-7.4,15.4c-13.7-4.1-27.9-9.8-37.2-21C37.1,84.3,35.3,74.7,39.2,67.2z"/>
	<path class="st1" d="M164,86.6c8.7-12.7,17-25.7,25.8-38.4c9,5.1,18.8,11.3,22.4,21.6c3.1,8.1-0.6,17.1-6.3,23.1
		c-9.6,9.6-22.4,14.8-35.1,18.7c-0.9-5.8-3.7-11-7.5-15.3c4.3-3.1,8.6-6.3,12.9-9.3C172.1,86.7,168.1,86.8,164,86.6z"/>
	<path class="st1" d="M93.7,93.4c21.1-0.5,42.3-0.2,63.4-0.2c-3.7,2.5-7.6,4.9-10.9,8c-0.4,1.5,0.7,2.9,1.2,4.2
		c14.5,29.4,29.2,58.8,43.8,88.3c1.8,3.4,2.9,7.6,6.4,9.7c4.8,3.1,9.6,6.1,14.4,9.2c-23.4,0.1-46.9,0.2-70.3-0.1
		c5.4-3.5,10.8-6.9,16.3-10.2c-2.6-6.7-6.1-12.9-9-19.5c-14.7,0-29.4,0.1-44.1,0c-1.6,0.1-3.9-0.3-4.4,1.7
		c-2.9,5.8-5.6,11.8-8.3,17.8c5.5,3.4,11,6.6,16.3,10.4c-23.2,0.2-46.4,0.3-69.6,0c4.8-3.6,10.1-6.4,15.1-9.8
		c2.8-2.2,3.6-5.8,5.2-8.8c14.8-29.9,29.5-59.8,44.3-89.7c0.5-1.2,1.7-2.8,0.1-3.7C100.3,98.1,96.9,95.9,93.7,93.4 M124.5,134.5
		c-5.8,11.6-11.2,23.4-16.7,35c11.5,0.3,23,0,34.5,0c-5.3-11.9-11.2-23.6-16.7-35.4C125.3,134.3,124.8,134.4,124.5,134.5z"/>
	<path class="st1" d="M37.2,94.9c2.5,7.6,8.1,13.8,14.8,18.1c10.1,6.6,21.4,11.1,33.2,13.8c-4.5,9.8-9.7,19.2-14,29
		c-9-2.8-17.3-7.4-24.5-13.4c-5.1-4.7-9.7-11-9.5-18.3C37.3,114.3,37.1,104.6,37.2,94.9z"/>
	<path class="st1" d="M206.2,106.2c3.1-3,4.7-7,6.8-10.7c0.4,7.5,0.1,15,0.2,22.5c0,4.8,0.4,9.9-1.9,14.3
		c-3.7,8.2-11.6,13.3-19.1,17.8c-4.1,2.5-8.5,4.1-13,5.7c-4.6-9.7-9.6-19.3-14.2-29C179.9,123,195.2,117.4,206.2,106.2z"/>
	<path class="st1" d="M37.3,141.8c4.3,12.6,16.3,20.4,28,25.4c-3.9,8.5-8.2,16.8-12.4,25.2c-7.3-5.2-13.8-12.6-15.4-21.6
		C37.1,161.2,37.5,151.5,37.3,141.8z"/>
	<path class="st1" d="M185.1,167.3c11.7-5.1,23.6-12.9,27.9-25.5c0.2,8.4,0.1,16.8,0.1,25.2c-0.2,10.6-7.3,19.7-15.8,25.4
		C193.2,184.1,188.9,175.8,185.1,167.3z"/>
</g>
</svg>
